img/svg/quote-1.svg

<?xml version="1.0" encoding="iso-8859-1"?>
<!-- Generator: Adobe Illustrator 16.0.0, SVG Export Plug-In . SVG Version: 6.00 Build 0)  -->
<!DOCTYPE svg PUBLIC "-//W3C//DTD SVG 1.1//EN" "http://www.w3.org/Graphics/SVG/1.1/DTD/svg11.dtd">
<svg version="1.1" id="Capa_1" xmlns="http://www.w3.org/2000/svg" xmlns:xlink="http://www.w3.org/1999/xlink" x="0px" y="0px"
	 width="475.082px" height="475.081px" viewBox="0 0 475.082 475.081" style="enable-background:new 0 0 475.082 475.081;"
	 xml:space="preserve">
<g>
	<g>
		<path d="M164.454,36.547H54.818c-15.229,0-28.171,5.33-38.832,15.987C5.33,63.193,0,76.135,0,91.365v109.632
			c0,15.229,5.327,28.169,15.986,38.826c10.66,10.656,23.606,15.988,38.832,15.988h63.953c7.611,0,14.084,2.666,19.414,7.994
			c5.33,5.325,7.994,11.8,7.994,19.417v9.131c0,20.177-7.139,37.397-21.413,51.675c-14.275,14.271-31.499,21.409-51.678,21.409
			H54.818c-4.952,0-9.233,1.813-12.851,5.427c-3.615,3.614-5.424,7.898-5.424,12.847v36.549c0,4.941,1.809,9.233,5.424,12.848
			c3.621,3.613,7.898,5.427,12.851,5.427h18.271c19.797,0,38.688-3.86,56.676-11.566c17.987-7.707,33.546-18.131,46.68-31.265
			c13.131-13.135,23.553-28.691,31.261-46.679c7.707-17.987,11.562-36.877,11.562-56.671V91.361c0-15.23-5.33-28.171-15.987-38.828
			S179.679,36.547,164.454,36.547z"/>
		<path d="M459.089,52.534c-10.656-10.657-23.599-15.987-38.828-15.987H310.629c-15.229,0-28.171,5.33-38.828,15.987
			c-10.656,10.66-15.984,23.601-15.984,38.831v109.632c0,15.229,5.328,28.169,15.984,38.826
			c10.657,10.656,23.6,15.988,38.828,15.988h63.953c7.611,0,14.089,2.666,19.418,7.994c5.324,5.328,7.994,11.8,7.994,19.417v9.131
			c0,20.177-7.139,37.397-21.416,51.675c-14.274,14.271-31.494,21.409-51.675,21.409h-18.274c-4.948,0-9.233,1.813-12.847,5.427
			c-3.617,3.614-5.428,7.898-5.428,12.847v36.549c0,4.941,1.811,9.233,5.428,12.848c3.613,3.613,7.898,5.427,12.847,5.427h18.274
			c19.794,0,38.684-3.86,56.674-11.566c17.984-7.707,33.541-18.131,46.676-31.265c13.134-13.135,23.562-28.695,31.265-46.679
			c7.706-17.983,11.563-36.877,11.563-56.671V91.361C475.078,76.131,469.753,63.19,459.089,52.534z"/>
	</g>
</g>
<g>
</g>
<g>
</g>
<g>
</g>
<g>
</g>
<g>
</g>
<g>
</g>
<g>
</g>
<g>
</g>
<g>
</g>
<g>
</g>
<g>
</g>
<g>
</g>
<g>
</g>
<g>
</g>
<g>
</g>
</svg>

<svg width="476" height="476" viewBox="0 0 476 476" fill="none" xmlns="http://www.w3.org/2000/svg">
<path d="M164.454 36.547H54.818C39.589 36.547 26.647 41.877 15.986 52.534C5.33 63.193 0 76.135 0 91.365V200.997C0 216.226 5.327 229.166 15.986 239.823C26.646 250.479 39.592 255.811 54.818 255.811H118.771C126.382 255.811 132.855 258.477 138.185 263.805C143.515 269.13 146.179 275.605 146.179 283.222V292.353C146.179 312.53 139.04 329.75 124.766 344.028C110.491 358.299 93.267 365.437 73.088 365.437H54.818C49.866 365.437 45.585 367.25 41.967 370.864C38.352 374.478 36.543 378.762 36.543 383.711V420.26C36.543 425.201 38.352 429.493 41.967 433.108C45.588 436.721 49.865 438.535 54.818 438.535H73.089C92.886 438.535 111.777 434.675 129.765 426.969C147.752 419.262 163.311 408.838 176.445 395.704C189.576 382.569 199.998 367.013 207.706 349.025C215.413 331.038 219.268 312.148 219.268 292.354V91.361C219.268 76.131 213.938 63.19 203.281 52.533C192.624 41.876 179.679 36.547 164.454 36.547Z" fill="black"/>
<path d="M459.089 52.534C448.433 41.877 435.49 36.547 420.261 36.547H310.629C295.4 36.547 282.458 41.877 271.801 52.534C261.145 63.194 255.817 76.135 255.817 91.365V200.997C255.817 216.226 261.145 229.166 271.801 239.823C282.458 250.479 295.401 255.811 310.629 255.811H374.582C382.193 255.811 388.671 258.477 394 263.805C399.324 269.133 401.994 275.605 401.994 283.222V292.353C401.994 312.53 394.855 329.75 380.578 344.028C366.304 358.299 349.084 365.437 328.903 365.437H310.629C305.681 365.437 301.396 367.25 297.782 370.864C294.165 374.478 292.354 378.762 292.354 383.711V420.26C292.354 425.201 294.165 429.493 297.782 433.108C301.395 436.721 305.68 438.535 310.629 438.535H328.903C348.697 438.535 367.587 434.675 385.577 426.969C403.561 419.262 419.118 408.838 432.253 395.704C445.387 382.569 455.815 367.009 463.518 349.025C471.224 331.042 475.081 312.148 475.081 292.354V91.361C475.078 76.131 469.753 63.19 459.089 52.534Z" fill="black"/>
</svg>
